src/actions/16/debug-step-instruction.svg

<svg xmlns="http://www.w3.org/2000/svg" viewBox="0 0 16 16">
  <defs id="defs3051">
    <style type="text/css" id="current-color-scheme">
      .ColorScheme-Text {
        color:#363636;
      }
      .ColorScheme-NeutralText {
        color:#f67400;
      }
      </style>
  </defs>
 <path style="fill:currentColor;fill-opacity:1;stroke:none" 
     d="M 2 2 L 2 14 L 14 14 L 14 2 L 11 2 L 11 5 L 13 5 L 13 13 L 3 13 L 3 5 L 5 5 L 5 2 L 3 2 L 2 2 z M 6.4296875 6 C 5.3636875 6 4.9160156 6.3519062 4.9160156 7.2539062 C 4.9160156 7.2539062 4.8917656 7.841 4.8847656 8 C 4.8387656 8.369 4.7096406 8.6777344 4.3066406 8.6777344 L 4.0019531 8.6777344 L 4.0019531 9.3222656 L 4.3066406 9.3222656 C 4.8956406 9.3222656 4.9160156 9.966437 4.9160156 10.523438 C 4.9110156 10.697437 4.9295938 10.892953 4.9335938 11.001953 C 5.0165938 11.713953 5.4716875 12.001953 6.4296875 12.001953 L 6.4296875 11.408203 C 5.9796875 11.408203 5.8237656 11.291953 5.7597656 11.001953 C 5.7257656 10.885953 5.7229844 10.487875 5.7089844 10.296875 C 5.7089844 9.881875 5.5853281 9.2618594 4.9863281 9.0058594 C 5.4593281 8.8028594 5.6305937 8.3778594 5.6835938 8.0058594 C 5.7075938 7.9018594 5.7010312 7.7821719 5.7070312 7.7011719 C 5.7070312 6.8351719 5.7186875 6.5976564 6.4296875 6.5976562 L 6.4296875 6 z M 7.5 6 L 7.5 7 L 8.5 7 L 8.5 6 L 7.5 6 z M 9.5800781 6 L 9.5800781 6.5976562 C 10.291078 6.5976562 10.302734 6.8351719 10.302734 7.7011719 C 10.308734 7.7821719 10.302172 7.9018594 10.326172 8.0058594 C 10.379172 8.3778594 10.550435 8.8028594 11.023438 9.0058594 C 10.424436 9.2618594 10.300781 9.881875 10.300781 10.296875 C 10.286781 10.487875 10.284 10.885953 10.25 11.001953 C 10.186 11.291953 10.030078 11.408203 9.5800781 11.408203 L 9.5800781 12.001953 C 10.538078 12.001953 10.993172 11.713953 11.076172 11.001953 C 11.080172 10.892953 11.09875 10.697437 11.09375 10.523438 C 11.09375 9.9664365 11.114125 9.3222656 11.703125 9.3222656 L 12.007812 9.3222656 L 12.007812 8.6777344 L 11.703125 8.6777344 C 11.300125 8.6777344 11.171 8.369 11.125 8 C 11.118 7.841 11.09375 7.2539062 11.09375 7.2539062 C 11.09375 6.3519062 10.646078 6 9.5800781 6 z M 7.5 8 L 7.5 12 L 8.5 12 L 8.5 8 L 7.5 8 z "
     class="ColorScheme-Text"
     />
  <path
       style="fill:currentColor;fill-opacity:1;stroke:none" 
     class="ColorScheme-NeutralText"
   d="M 10,2 8,5 6,2 Z" />
</svg>

<?xml version="1.0" encoding="UTF-8"?>
<svg viewBox="0 0 16 16" xmlns="http://www.w3.org/2000/svg">
 <defs id="defs3051">
  <style id="current-color-scheme" type="text/css">.ColorScheme-Text {
        color:#363636;
      }
      .ColorScheme-NeutralText {
        color:#f67400;
      }</style>
 </defs>
 <path class="ColorScheme-Text" d="m2 2v12h12v-12h-3v3h2v8h-10v-8h2v-3h-2-1zm4.4297 4c-1.066 0-1.5137 0.35191-1.5137 1.2539 0 0-0.02425 0.58709-0.03125 0.74609-0.046 0.369-0.17512 0.67773-0.57812 0.67773h-0.30469v0.64453h0.30469c0.589 0 0.60938 0.64417 0.60938 1.2012-5e-3 0.174 0.013578 0.36952 0.017578 0.47852 0.083 0.712 0.53809 1 1.4961 1v-0.59375c-0.45 0-0.60592-0.11625-0.66992-0.40625-0.034-0.116-0.036781-0.51408-0.050781-0.70508 0-0.415-0.12366-1.035-0.72266-1.291 0.473-0.203 0.64427-0.628 0.69727-1 0.024-0.104 0.017437-0.22369 0.023437-0.30469 0-0.866 0.011656-1.1035 0.72266-1.1035v-0.59766zm1.0703 0v1h1v-1h-1zm2.0801 0v0.59766c0.711 0 0.72266 0.23752 0.72266 1.1035 6e-3 0.081-5.62e-4 0.20069 0.023438 0.30469 0.053 0.372 0.22426 0.797 0.69727 1-0.599 0.256-0.72266 0.87602-0.72266 1.291-0.014 0.191-0.016781 0.58908-0.050781 0.70508-0.064 0.29-0.21992 0.40625-0.66992 0.40625v0.59375c0.958 0 1.4131-0.288 1.4961-1 4e-3 -0.109 0.022578-0.30452 0.017578-0.47852 0-0.557 0.020375-1.2012 0.60938-1.2012h0.30469v-0.64453h-0.30469c-0.403 0-0.53212-0.30873-0.57812-0.67773-7e-3 -0.159-0.03125-0.74609-0.03125-0.74609 0-0.902-0.44767-1.2539-1.5137-1.2539zm-2.0801 2v4h1v-4h-1z" fill="currentColor"/>
 <path class="ColorScheme-NeutralText" d="m10 2-2 3-2-3z" fill="currentColor"/>
</svg>
